X: 488
T: Chashan qingge
L: 1/8
M: 2/4
K: C
c c G G [I:setbarnb 1]| 
A/ d/ c/ A/G2 | 
G c A F | 
D> FG2 | 
G A/ A/ c e | 
d e/ c/d2 | 
A G c e | 
d e A c | 
G4 |]

@@@ Tune index: 9362
